public/img/general/logos/dodge_logo_black.svg

<svg width="64" height="52" viewBox="0 0 64 52" fill="none" xmlns="http://www.w3.org/2000/svg">
    <path d="M33.0843 8.23976C33.4996 6.82437 36.6382 4.78175 37.1274 5.21649C37.1089 4.6938 39.3918 2.62961 40.234 2.98968C40.0306 2.36412 43.1608 0.431017 43.8937 0.973614C44.0753 0.188756 48.6109 -0.403619 49.5103 0.343074C50.028 -0.229391 54.0509 0.733013 54.1484 1.73026C54.8897 1.09143 58.9933 5.37246 59 7.52626C59 8.36753 55.1402 4.97091 52.7026 5.71926C48.6848 6.92725 43.5609 11.1552 39.1279 17.522C37.8889 19.2527 34.7167 19.8849 34.0207 17.0607C34.0207 17.0624 32.6523 9.66346 33.0843 8.23976Z" fill="black"/>
    <path d="M32.4081 48.741C31.7575 47.6696 31.9592 46.3863 32.4929 45.8885C33.2485 45.1669 35.4121 45.7489 35.5815 45.0795C36.0085 43.5473 34.9106 43.0057 35.1105 40.8646C35.1647 40.1229 36.5896 34.7072 36.9539 34.2228C37.2555 33.8258 39.0769 33.1951 39.5699 32.9899C39.8698 32.6519 40.0816 32.2432 40.085 31.5418C37.7197 30.8051 37.081 33.0034 36.7404 32.9058C36.3982 32.8352 36.9149 30.5125 37.2114 30.2669C37.5096 30.0062 40.3018 29.3906 40.6 28.9029C40.9473 28.3865 42.235 23.4451 40.6 23.3694C40.7457 23.3896 40.5322 23.0347 40.6424 23.07C44.0038 23.8404 46.2657 7.94464 54.4949 8.00015C62.685 8.07247 62.2581 19.834 61.7854 20.2613C60.8467 21.0871 59.4913 20.786 59.4269 21.5378C59.0203 28.7313 52.5447 36.4294 50.5929 35.7584C49.4137 35.348 50.4167 31.6932 50.9792 31.6276C50.4591 31.3955 50.9707 27.6331 51.579 27.5405C51.0978 27.2092 51.5231 23.7411 52.1364 23.7092C51.8297 23.4367 51.8619 21.0618 51.2367 19.8778C50.7776 18.9729 48.7495 18.4852 48.6208 20.6868C49.8627 20.1032 49.9474 24.0809 49.4357 24.7738C48.9257 25.4348 45.6456 26.9569 44.6324 27.7962C44.707 29.4932 43.0889 36.0056 41.8877 37.8876C40.7034 39.7293 39.5106 40.8293 38.843 42.528C38.1467 44.2116 38.5838 47.0961 37.042 48.4029C36.3524 48.9748 32.6877 49.2304 32.4081 48.741Z" fill="black"/>
    <path d="M60.6917 21.67C61.0847 21.0217 62.6433 20.7641 63.2009 21.0739C63.866 21.4477 64.3547 26.6251 63.6678 26.7851C64.269 27.0949 63.52 31.023 62.7743 31.0466C63.3655 31.2823 62.1411 35.1346 61.4139 35.01C61.8439 35.601 59.8604 38.7327 59.3314 38.5492C59.1433 41.7819 49.4644 43.3192 49.681 40.5949C49.7868 39.2884 51.2346 41.2129 57.7594 31.0483C60.6212 26.5359 60.1375 22.6415 60.6917 21.67ZM30.7633 8.3299C30.0949 6.83477 27.3204 4.8463 26.8518 5.30427C26.8518 4.75706 24.5711 2.66252 23.7481 3.04473C23.9329 2.39144 20.804 0.429918 20.0499 0.999014C19.892 0.185779 15.3608 -0.415308 14.4808 0.359201C13.945 -0.238518 9.92599 0.738038 9.84706 1.7651C9.08793 1.10004 4.98831 5.44402 5.00007 7.648C4.98159 8.48481 8.83769 5.03656 11.2494 5.77234C15.2869 7.02166 20.406 11.3134 24.8532 17.7486C26.0725 19.5317 29.1729 20.1715 29.8699 17.2788C29.8715 17.2788 31.4469 9.7981 30.7633 8.3299Z" fill="black"/>
    <path d="M30.5904 48.7194C31.2249 47.5886 31.1092 46.3451 30.5479 45.8234C29.8146 45.1267 27.6847 45.751 27.4908 45.0998C27.0859 43.5483 28.19 43.0065 28.008 40.8829C27.9348 40.1223 26.5041 34.7055 26.1571 34.2377C25.8338 33.822 24.0067 33.191 23.5304 33.0025C23.2106 32.6475 22.9996 32.2369 22.9707 31.5116C25.3711 30.7981 26.0125 32.9992 26.3731 32.9184C26.6963 32.8292 26.1792 30.5053 25.9002 30.2344C25.5804 29.9972 22.8193 29.3409 22.4553 28.9135C22.0793 28.4154 20.8374 23.4361 22.4553 23.3351C22.3328 23.3806 22.5471 23.0238 22.4127 23.0356C19.0614 23.8316 16.7903 7.92622 8.50372 8.00026C0.303945 8.05411 0.732648 19.8216 1.226 20.2675C2.14805 21.0769 3.51071 20.7757 3.55153 21.5447C3.98194 28.725 10.4856 36.4269 12.4658 35.7286C13.6311 35.3432 12.624 31.6883 12.0779 31.5974C12.5815 31.3922 12.0694 27.6262 11.4757 27.5521C11.9401 27.2021 11.5114 23.7323 10.9143 23.6751C11.2018 23.4277 11.1712 21.05 11.7751 19.8838C12.2583 18.96 14.2963 18.472 14.4018 20.6932C13.1803 20.0925 13.0936 24.0705 13.6277 24.7386C14.1211 25.4234 17.4146 26.9463 18.4489 27.8045C18.3554 29.4856 19.98 36.0012 21.1623 37.8573C22.3753 39.7251 23.5729 40.8273 24.2619 42.5017C24.9475 44.2265 25.2673 47.6038 26.1128 48.3795C26.8716 49.0627 30.308 49.2428 30.5904 48.7194ZM31.5397 51.9991C28.964 52.0462 26.7117 50.2373 27.1472 49.7408C28.0471 48.8187 29.5833 50.1851 31.4104 49.4009C33.2204 50.143 34.7175 48.8221 35.8879 49.6988C36.5599 50.1767 34.0966 51.9638 31.5397 51.9991Z" fill="black"/>
    <path d="M3.21219 21.6127C2.85171 20.9437 1.33278 20.8575 0.764204 21.1853C0.138281 21.5401 -0.338535 26.5663 0.308689 26.7437C-0.25497 27.0377 0.47582 30.9792 1.22136 30.9792C0.628205 31.2394 1.8227 35.105 2.50761 34.9985C2.11108 35.573 4.0462 38.7171 4.58201 38.5482C4.74914 41.7768 14.1904 43.3176 13.9971 40.6026C13.8758 39.2729 12.4634 41.204 6.11732 30.9809C3.30394 26.4784 3.77748 22.5723 3.21219 21.6127Z" fill="black"/>
</svg>

<svg width="64" height="52" fill="none" xmlns="http://www.w3.org/2000/svg"><path d="M33.084 8.24c.416-1.416 3.554-3.458 4.043-3.024-.018-.522 2.265-2.586 3.107-2.226-.203-.626 2.927-2.559 3.66-2.016.181-.785 4.717-1.378 5.616-.63.518-.573 4.54.389 4.638 1.386.742-.639 4.845 3.642 4.852 5.796 0 .842-3.86-2.555-6.297-1.807-4.018 1.208-9.142 5.436-13.575 11.803-1.24 1.73-4.411 2.363-5.107-.461 0 .001-1.369-7.398-.937-8.821z" fill="#000"/><path d="M32.408 48.741c-.65-1.071-.449-2.355.085-2.852.755-.722 2.92-.14 3.088-.81.427-1.532-.67-2.073-.47-4.214.054-.742 1.479-6.158 1.843-6.642.301-.397 2.123-1.028 2.616-1.233.3-.338.512-.747.515-1.448-2.365-.737-3.004 1.461-3.345 1.364-.342-.07.175-2.393.471-2.64.299-.26 3.09-.875 3.389-1.363.347-.516 1.635-5.458 0-5.534.146.02-.068-.334.042-.299 3.362.77 5.624-15.125 13.853-15.07 8.19.072 7.763 11.834 7.29 12.261-.938.826-2.294.525-2.358 1.277-.407 7.193-6.882 14.891-8.834 14.22-1.18-.41-.176-4.065.386-4.13-.52-.233-.008-3.995.6-4.087-.481-.332-.056-3.8.557-3.832-.306-.272-.274-2.647-.9-3.831-.458-.905-2.486-1.393-2.615.809 1.242-.584 1.326 3.394.815 4.087-.51.66-3.79 2.183-4.804 3.022.075 1.697-1.543 8.21-2.744 10.092-1.185 1.841-2.377 2.941-3.045 4.64-.696 1.684-.26 4.568-1.801 5.875-.69.572-4.354.827-4.634.338z" fill="#000"/><path d="M60.692 21.67c.393-.648 1.951-.906 2.509-.596.665.374 1.154 5.551.467 5.711.601.31-.148 4.238-.894 4.262.591.235-.633 4.088-1.36 3.963.43.591-1.554 3.723-2.083 3.54-.188 3.232-9.867 4.77-9.65 2.045.106-1.307 1.554.618 8.078-9.547 2.862-4.512 2.379-8.406 2.933-9.378zM30.763 8.33c-.668-1.495-3.443-3.484-3.911-3.026 0-.547-2.28-2.641-3.104-2.26C23.933 2.392 20.804.43 20.05 1c-.158-.813-4.69-1.414-5.57-.64-.535-.598-4.554.379-4.633 1.406C9.087 1.1 4.988 5.444 5 7.648c-.018.837 3.838-2.611 6.25-1.876 4.037 1.25 9.156 5.541 13.603 11.977 1.22 1.783 4.32 2.423 5.017-.47.002 0 1.577-7.48.893-8.95z" fill="#000"/><path d="M30.59 48.72c.635-1.131.52-2.375-.042-2.897-.733-.696-2.863-.072-3.057-.723-.405-1.552.699-2.093.517-4.217-.073-.76-1.504-6.178-1.85-6.645-.324-.416-2.151-1.047-2.628-1.236-.32-.355-.53-.765-.56-1.49 2.401-.714 3.043 1.487 3.403 1.406.323-.089-.194-2.413-.473-2.684-.32-.237-3.08-.893-3.445-1.32-.376-.499-1.618-5.478 0-5.579-.122.046.092-.311-.042-.3C19.06 23.833 16.79 7.927 8.503 8c-8.2.054-7.77 11.822-7.277 12.267.922.81 2.285.509 2.326 1.278.43 7.18 6.934 14.882 8.914 14.184 1.165-.386.158-4.04-.388-4.132.504-.205-.009-3.97-.602-4.045.464-.35.035-3.82-.562-3.877.288-.247.257-2.625.861-3.791.483-.924 2.521-1.412 2.627.81-1.222-.601-1.308 3.377-.774 4.045.493.684 3.787 2.207 4.82 3.066-.093 1.68 1.532 8.196 2.714 10.052 1.213 1.868 2.41 2.97 3.1 4.645.686 1.724 1.005 5.102 1.85 5.877.76.684 4.196.864 4.478.34zm.95 3.28c-2.576.046-4.828-1.763-4.393-2.26.9-.921 2.436.445 4.263-.34 1.81.743 3.308-.578 4.478.299.672.478-1.791 2.265-4.348 2.3z" fill="#000"/><path d="M3.212 21.613c-.36-.67-1.88-.755-2.448-.428-.626.355-1.103 5.381-.455 5.559-.564.294.167 4.235.912 4.235-.593.26.602 4.126 1.287 4.02-.397.574 1.538 3.718 2.074 3.55.167 3.228 9.608 4.769 9.415 2.054-.121-1.33-1.534.601-7.88-9.622-2.813-4.503-2.34-8.409-2.905-9.368z" fill="#000"/></svg>
